X:10417
T:Mary Bill's
R:jig
C:Paul S. Cranford
O:20th Century Cape Breton
D:The Lighthouse, Cranford Publications
B:The Lighthouse Collection, ISBN 0-9691181-5-5
N:Contacts ...
N:..... Cranford Publications <http://www.cranfordpub.com>
H:Composed for Mary Mahoney and Bill
Z:This abc transcription is for personal use only,
Z:provided this notice remains attached.
Z:Used by permission of the composer and publisher.
Z:Paul Stewart Cranford 
Q:288
L:1/8
M:6/8
K:Ador
B,|A,2 A AGE|c2 A AGE|GAG EGE|DGD B,A,G,|!
A,AA AGE|c2 A AGE|GAG EGE|DB,G, A,2:|!
|:B|cBA (d^cd)|ecA GED|Ecc DBG|EAA A2 B|!
[1cBA (d^cd)|ecA Bgf|ecA Bgf|ecA BdB|cAA A2:|!
[2cBA (d^cd)|edB g2e|a^ga BdB|cAA A|]!
